X:1
T:No.121 The Kilcar Mazurka
M:3/4
L:1/8
C:mazurka
K:G
bg d2B2|GB e2g2|fd c2A2|GB d2g2|
bg d2c2|Ac e2g2|fe d2f2|[1a2g2 ga:|[2a2g2 gd||
Bd g2 ge|fg a2gg|fg e2 ef|gd B2|G2B2d2|
g2ge|fg a2 gg|fg e2f2|[1a2g2 gd:|[2a2g2 ga||
